X: 22532
T: Lady Grace Douglas's
R: reel
M: 4/4
K: Gminor
g|Tf2 dB Tc2 AF|B2 AF ECCg|Tf2 dB Tc2 AF|BFGE DB,B,:|
E|(D/E/F) FB GBFB|EBDB cCCE|(D/E/F) FB GBFB|DFBF DB,B,E|
(D/E/F) FB GBFB|EBDB cCTC>E|DFBd cFBg|fdce dBTB||

